apps/scalable/ktorrent.svg

<svg xmlns="http://www.w3.org/2000/svg" style="isolation:isolate" width="256" height="256"><defs><filter id="a" width="270.648" height="254.338" x="-7.32" y="2.95" filterUnits="userSpaceOnUse"><feGaussianBlur xmlns="http://www.w3.org/2000/svg" in="SourceGraphic" stdDeviation="4.294"/><feOffset xmlns="http://www.w3.org/2000/svg" dy="4" result="pf_100_offsetBlur"/><feFlood xmlns="http://www.w3.org/2000/svg" flood-opacity=".4"/><feComposite xmlns="http://www.w3.org/2000/svg" in2="pf_100_offsetBlur" operator="in" result="pf_100_dropShadow"/><feBlend xmlns="http://www.w3.org/2000/svg" in="SourceGraphic" in2="pf_100_dropShadow"/></filter></defs><g filter="url(#a)"><linearGradient id="b" x1=".306" x2=".729" y1="-.14" y2="1.057" gradientTransform="matrix(244.648 0 0 228.338 5.676 11.947)" gradientUnits="userSpaceOnUse"><stop offset="0%" stop-color="#5884f4"/><stop offset="100%" stop-color="#80a3fa"/></linearGradient><path fill="url(#b)" d="M165.685 11.947c74.055 0 84.639 10.557 84.639 84.544v59.251c0 73.986-10.584 84.543-84.639 84.543h-75.37c-74.055 0-84.639-10.557-84.639-84.543V96.491c0-73.987 10.584-84.544 84.639-84.544h75.37z"/></g><g opacity=".4"><linearGradient id="c" x1=".517" x2=".517" y2="1"><stop offset="0%" stop-color="#fff"/><stop offset="12.5%" stop-opacity=".098" stop-color="#fff"/><stop offset="92.5%" stop-opacity=".098"/><stop offset="100%" stop-opacity=".498"/></linearGradient><path fill="none" stroke="url(#c)" stroke-linecap="round" stroke-linejoin="round" stroke-width="4.077" d="M165.685 11.947c74.055 0 84.639 10.557 84.639 84.544v59.251c0 73.986-10.584 84.543-84.639 84.543h-75.37c-74.055 0-84.639-10.557-84.639-84.543V96.491c0-73.987 10.584-84.544 84.639-84.544h75.37z" vector-effect="non-scaling-stroke"/></g><path fill="#FFF" d="M5.676 126.116v29.626c0 73.986 10.584 84.543 84.639 84.543h75.37c74.055 0 84.639-10.557 84.639-84.543v-29.626H5.676z" opacity=".1"/><path fill="#FFF" d="M128 11.947v228.338h37.685c74.055 0 84.639-10.557 84.639-84.543V96.491c0-73.987-10.584-84.544-84.639-84.544H128z" opacity=".2"/><path fill="#FDFDFD" fill-rule="evenodd" d="M136.072 68.864a5.915 5.915 0 0 0-5.913 5.913 5.915 5.915 0 0 0 5.913 5.913 5.915 5.915 0 0 0 5.913-5.913 5.915 5.915 0 0 0-5.913-5.913zm68.986 35.478a3.943 3.943 0 0 0-3.942 3.942 3.943 3.943 0 0 0 3.942 3.942 3.943 3.943 0 0 0 3.942-3.942 3.943 3.943 0 0 0-3.942-3.942zM65.116 80.69a5.915 5.915 0 0 0-5.913 5.913 5.915 5.915 0 0 0 5.913 5.913 5.915 5.915 0 0 0 5.913-5.913 5.915 5.915 0 0 0-5.913-5.913zm46.417 4.336c-.264.031-.52.106-.768.217-1.995.875-2.669 3.721-.048 9.701 2.626 5.98 6.367 10.123 8.361 9.248 1.995-.875 1.483-6.429-1.139-12.409-2.294-5.235-4.545-6.982-6.406-6.753m-23.605 2.503c-1.557-.134-3.693 1.415-1.754 3.619 2.582 2.941 3.942 8.176 1.64 9.224-2.314 1.049-2.144-3.902-2.349-6.536-.201-2.633-6.611-4.218-8.976-.954-2.366 3.264.015 6.781 2.357 7.49 2.342.714 2.704 3.394 4.096 6.181 1.395 2.787 8.183 2.09 9.839 0 1.656-2.089 2.685-5.972-.54-9.555-3.225-3.583-2.247-6.911-3.118-8.74-.217-.457-.674-.686-1.195-.733m76.846.308c-2.093-.493-2.956 3.449-3.449 7.147-.493 3.697-2.341 7.513-.741 8.254 2.219.986 3.351-5.077 5.858-7.344 2.507-2.27.422-7.561-1.672-8.053m-66.151.741a3.943 3.943 0 0 0-3.942 3.942 3.943 3.943 0 0 0 3.942 3.942 3.943 3.943 0 0 0 3.942-3.942 3.943 3.943 0 0 0-3.942-3.942zm47.904.93c-2.563.189-5.113 4.561-6.367 7.592-1.435 3.461.3 10.21-3.078 12.741-3.379 2.535-5.85 2.606-7.538 1.593-1.687-1.014 1.447-.883-.437-4.743-1.888-3.859-6.402-2.653-7.585.355-1.182 3.008 1.27 2.87.422 4.644-.843 1.774-8.026 3.689-9.63-1.632-1.605-5.322-7.305-11.113-9.079-9.678-1.774 1.435.213 6.725 4.857 10.947 4.644 4.222-1.191 6.497-5.227 3.319-4.037-3.181-8.783 2.417-12.457 6.162-3.678 3.741-6.962 3.997-9.579 1.754-2.614-2.239-.315-8.334-3.335-14.46-3.016-6.125-9.012-3.074-9.855 1.065-.844 4.139 7.569 6.926 5.937 9.224-1.632 2.298-8.157 1.778-10.08-2.554-1.92-4.332-6.106-2.929-6.189.615-.083 3.548 3.24 1.072 5.834 3.666l67.014 67.014 67.015-67.014c7.884-7.884-1.143-4.506-3.004-2.732-1.857 1.774-7.6 3.213-8.278 1.269-.674-1.943 6.433-5.203 8.46-7.399 2.026-2.195 4.009-8.432.733-10.718-3.276-2.287-7.924 1.841-9.938 4.88-2.026 3.039-.268 10.785-2.972 13.151-2.705 2.365-4.191.926-4.695-1.1-.509-2.026 5.834-4.876 3.173-9.918-2.665-5.042-7.585-2.756-9.863-.395-2.279 2.366 1.372 6.008 2.219 9.726.844 3.717-7.801 3.622-11.179 2.27-3.379-1.352-4.478-9.847-5.913-10.356-1.435-.508-5.093 2.815-9.741 1.38-4.644-1.435-.788-4.297.647-7.675 1.434-3.378 3.701-11.519.8-12.796a2.227 2.227 0 0 0-1.092-.193m40.792-4.872a5.915 5.915 0 0 0-5.913 5.913 5.915 5.915 0 0 0 5.913 5.913 5.915 5.915 0 0 0 5.913-5.913 5.915 5.915 0 0 0-5.913-5.913zm-136 15.768a3.943 3.943 0 0 0-3.942 3.942 3.943 3.943 0 0 0 3.942 3.942 3.943 3.943 0 0 0 3.942-3.942 3.943 3.943 0 0 0-3.942-3.942z"/></svg>

<svg xmlns="http://www.w3.org/2000/svg" style="isolation:isolate" width="256" height="256" viewBox="0 0 256 256">
 <defs>
  <filter id="T3Zc55xvkDt3DKNwO9yn3yAqzlLgPwrb" width="270.648" height="254.338" x="-7.32" y="2.95" filterUnits="userSpaceOnUse">
   <feGaussianBlur xmlns="http://www.w3.org/2000/svg" in="SourceGraphic" stdDeviation="4.294"/>
   <feOffset xmlns="http://www.w3.org/2000/svg" dx="0" dy="4" result="pf_100_offsetBlur"/>
   <feFlood xmlns="http://www.w3.org/2000/svg" flood-opacity=".4"/>
   <feComposite xmlns="http://www.w3.org/2000/svg" in2="pf_100_offsetBlur" operator="in" result="pf_100_dropShadow"/>
   <feBlend xmlns="http://www.w3.org/2000/svg" in="SourceGraphic" in2="pf_100_dropShadow" mode="normal"/>
  </filter>
 </defs>
 <g filter="url(#T3Zc55xvkDt3DKNwO9yn3yAqzlLgPwrb)">
  <linearGradient id="_lgradient_7" x1=".306" x2=".729" y1="-.14" y2="1.057" gradientTransform="matrix(244.648,0,0,228.338,5.676,11.947)" gradientUnits="userSpaceOnUse">
   <stop offset="0%" style="stop-color:rgb(88,132,244)"/>
   <stop offset="100%" style="stop-color:rgb(128,163,250)"/>
  </linearGradient>
  <path fill="url(#_lgradient_7)" d="M 165.685 11.947 C 239.74 11.947 250.324 22.504 250.324 96.491 L 250.324 155.742 C 250.324 229.728 239.74 240.285 165.685 240.285 L 90.315 240.285 C 16.26 240.285 5.676 229.728 5.676 155.742 L 5.676 96.491 C 5.676 22.504 16.26 11.947 90.315 11.947 L 165.685 11.947 Z"/>
 </g>
 <g opacity=".4">
  <linearGradient id="_lgradient_8" x1=".517" x2=".517" y1="0" y2="1">
   <stop offset="0%" style="stop-color:rgb(255,255,255)"/>
   <stop offset="12.5%" stop-opacity=".098" style="stop-color:rgb(255,255,255)"/>
   <stop offset="92.5%" stop-opacity=".098" style="stop-color:rgb(0,0,0)"/>
   <stop offset="100%" stop-opacity=".498" style="stop-color:rgb(0,0,0)"/>
  </linearGradient>
  <path fill="none" stroke="url(#_lgradient_8)" stroke-linecap="round" stroke-linejoin="round" stroke-width="4.077" d="M 165.685 11.947 C 239.74 11.947 250.324 22.504 250.324 96.491 L 250.324 155.742 C 250.324 229.728 239.74 240.285 165.685 240.285 L 90.315 240.285 C 16.26 240.285 5.676 229.728 5.676 155.742 L 5.676 96.491 C 5.676 22.504 16.26 11.947 90.315 11.947 L 165.685 11.947 Z" vector-effect="non-scaling-stroke"/>
 </g>
 <g opacity=".1">
  <path fill="#FFFFFF" d="M 5.676 126.116 L 5.676 155.742 C 5.676 229.728 16.26 240.285 90.315 240.285 L 165.685 240.285 C 239.74 240.285 250.324 229.728 250.324 155.742 L 250.324 126.116 L 5.676 126.116 Z"/>
 </g>
 <g opacity=".2">
  <path fill="#FFFFFF" d="M 128 11.947 L 128 240.285 L 165.685 240.285 C 239.74 240.285 250.324 229.728 250.324 155.742 L 250.324 96.491 C 250.324 22.504 239.74 11.947 165.685 11.947 L 128 11.947 Z"/>
 </g>
 <path fill="#FDFDFD" fill-rule="evenodd" d="M 136.072 68.864 C 132.808 68.864 130.159 71.513 130.159 74.777 C 130.159 78.041 132.808 80.69 136.072 80.69 C 139.336 80.69 141.985 78.041 141.985 74.777 C 141.985 71.513 139.336 68.864 136.072 68.864 Z M 205.058 104.342 C 202.882 104.342 201.116 106.108 201.116 108.284 C 201.116 110.46 202.882 112.226 205.058 112.226 C 207.234 112.226 209 110.46 209 108.284 C 209 106.108 207.234 104.342 205.058 104.342 Z M 65.116 80.69 C 61.852 80.69 59.203 83.339 59.203 86.603 C 59.203 89.867 61.852 92.516 65.116 92.516 C 68.38 92.516 71.029 89.867 71.029 86.603 C 71.029 83.339 68.38 80.69 65.116 80.69 Z M 111.533 85.026 C 111.269 85.057 111.013 85.132 110.765 85.243 C 108.77 86.118 108.096 88.964 110.717 94.944 C 113.343 100.924 117.084 105.067 119.078 104.192 C 121.073 103.317 120.561 97.763 117.939 91.783 C 115.645 86.548 113.394 84.801 111.533 85.03 M 87.928 87.533 C 86.371 87.399 84.235 88.948 86.174 91.152 C 88.756 94.093 90.116 99.328 87.814 100.376 C 85.5 101.425 85.67 96.474 85.465 93.84 C 85.264 91.207 78.854 89.622 76.489 92.886 C 74.123 96.15 76.504 99.667 78.846 100.376 C 81.188 101.09 81.55 103.77 82.942 106.557 C 84.337 109.344 91.125 108.647 92.781 106.557 C 94.437 104.468 95.466 100.585 92.241 97.002 C 89.016 93.419 89.994 90.091 89.123 88.262 C 88.906 87.805 88.449 87.576 87.928 87.529 M 164.774 87.837 C 162.681 87.344 161.818 91.286 161.325 94.984 C 160.832 98.681 158.984 102.497 160.584 103.238 C 162.803 104.224 163.935 98.161 166.442 95.894 C 168.949 93.624 166.864 88.333 164.77 87.841 M 98.619 88.582 C 96.443 88.582 94.677 90.348 94.677 92.524 C 94.677 94.7 96.443 96.466 98.619 96.466 C 100.795 96.466 102.561 94.7 102.561 92.524 C 102.561 90.348 100.795 88.582 98.619 88.582 Z M 146.523 89.512 C 143.96 89.701 141.41 94.073 140.156 97.104 C 138.721 100.565 140.456 107.314 137.078 109.845 C 133.699 112.38 131.228 112.451 129.54 111.438 C 127.853 110.424 130.987 110.555 129.103 106.695 C 127.215 102.836 122.701 104.042 121.518 107.05 C 120.336 110.058 122.788 109.92 121.94 111.694 C 121.097 113.468 113.914 115.383 112.31 110.062 C 110.705 104.74 105.005 98.949 103.231 100.384 C 101.457 101.819 103.444 107.109 108.088 111.331 C 112.732 115.553 106.897 117.828 102.861 114.65 C 98.824 111.469 94.078 117.067 90.404 120.812 C 86.726 124.553 83.442 124.809 80.825 122.566 C 78.211 120.327 80.51 114.232 77.49 108.106 C 74.474 101.981 68.478 105.032 67.635 109.171 C 66.791 113.31 75.204 116.097 73.572 118.395 C 71.94 120.693 65.415 120.173 63.492 115.841 C 61.572 111.509 57.386 112.912 57.303 116.456 C 57.22 120.004 60.543 117.528 63.137 120.122 L 130.151 187.136 L 197.166 120.122 C 205.05 112.238 196.023 115.616 194.162 117.39 C 192.305 119.164 186.562 120.603 185.884 118.659 C 185.21 116.716 192.317 113.456 194.344 111.26 C 196.37 109.065 198.353 102.828 195.077 100.542 C 191.801 98.255 187.153 102.383 185.139 105.422 C 183.113 108.461 184.871 116.207 182.167 118.573 C 179.462 120.938 177.976 119.499 177.472 117.473 C 176.963 115.447 183.306 112.597 180.645 107.555 C 177.98 102.513 173.06 104.799 170.782 107.16 C 168.503 109.526 172.154 113.168 173.001 116.886 C 173.845 120.603 165.2 120.508 161.822 119.156 C 158.443 117.804 157.344 109.309 155.909 108.8 C 154.474 108.292 150.816 111.615 146.168 110.18 C 141.524 108.745 145.38 105.883 146.815 102.505 C 148.249 99.127 150.516 90.986 147.615 89.709 C 147.252 89.547 146.885 89.488 146.523 89.516 M 187.315 84.644 C 184.051 84.644 181.402 87.293 181.402 90.557 C 181.402 93.821 184.051 96.47 187.315 96.47 C 190.579 96.47 193.228 93.821 193.228 90.557 C 193.228 87.293 190.579 84.644 187.315 84.644 Z M 51.315 100.412 C 49.139 100.412 47.373 102.178 47.373 104.354 C 47.373 106.53 49.139 108.296 51.315 108.296 C 53.491 108.296 55.257 106.53 55.257 104.354 C 55.257 102.178 53.491 100.412 51.315 100.412 Z"/>
</svg>
